svgs/light/circle-h.svg

<svg xmlns="http://www.w3.org/2000/svg" viewBox="0 0 512 512"><!-- Font Awesome Pro 6.0.0-alpha2 by @fontawesome - https://fontawesome.com License - https://fontawesome.com/license (Commercial License) --><path d="M336 128C327.156 128 320 135.156 320 144V240H192V144C192 135.156 184.844 128 176 128S160 135.156 160 144V368C160 376.844 167.156 384 176 384S192 376.844 192 368V272H320V368C320 376.844 327.156 384 336 384S352 376.844 352 368V144C352 135.156 344.844 128 336 128ZM256 16C123.451 16 16 123.451 16 256S123.451 496 256 496S496 388.549 496 256S388.549 16 256 16ZM256 464C141.309 464 48 370.691 48 256S141.309 48 256 48S464 141.309 464 256S370.691 464 256 464Z"/></svg>

<svg xmlns="http://www.w3.org/2000/svg" viewBox="0 0 512 512"><!--! Font Awesome Pro 6.3.0 by @fontawesome - https://fontawesome.com License - https://fontawesome.com/license (Commercial License) Copyright 2023 Fonticons, Inc. --><path d="M256 0C114.6 0 0 114.6 0 256s114.6 256 256 256s256-114.6 256-256S397.4 0 256 0zM256 480c-123.5 0-224-100.5-224-224s100.5-224 224-224s224 100.5 224 224S379.5 480 256 480zM336 128C327.2 128 320 135.2 320 144v96H192v-96C192 135.2 184.8 128 176 128S160 135.2 160 144v224C160 376.8 167.2 384 176 384S192 376.8 192 368v-96h128v96c0 8.844 7.156 16 16 16s16-7.156 16-16v-224C352 135.2 344.8 128 336 128z"/></svg>
